( CAPTURE SEQUENCE )
( this is the capture program used to create the uncertainty analysis data )
( each block labled 'CAPTURE NUMBER :#' was generated using 'capture sequence generator.py' )
( the working parameters are as follows; )
( span: 350 mm )
( incriment: 5 mm )
( start distance: 150 mm )
( photos per distance: 6 )
( MACHINE START )
G21
G90
F150
S17000
M03
G00  X0.000  Y0.000 Z0.000
G04 P1
( CAPTURE NUMBER: 0 )
G00 X0.000 Y0.000 Z0.000
G04 P.11
S18000
G04 P.44
S17000
G04 P.6
( CAPTURE NUMBER: 1 )
G00 X0.000 Y-5.000 Z0.000
G04 P.11
S18000
G04 P.44
S17000
G04 P.6
( CAPTURE NUMBER: 2 )
G00 X0.000 Y-10.000 Z0.000
G04 P.11
S18000
G04 P.44
S17000
G04 P.6
( CAPTURE NUMBER: 3 )
G00 X0.000 Y-15.000 Z0.000
G04 P.11
S18000
G04 P.44
S17000
G04 P.6
( CAPTURE NUMBER: 4 )
G00 X0.000 Y-20.000 Z0.000
G04 P.11
S18000
G04 P.44
S17000
G04 P.6
( CAPTURE NUMBER: 5 )
G00 X0.000 Y-25.000 Z0.000
G04 P.11
S18000
G04 P.44
S17000
G04 P.6
( CAPTURE NUMBER: 6 )
G00 X0.000 Y-30.000 Z0.000
G04 P.11
S18000
G04 P.44
S17000
G04 P.6
( CAPTURE NUMBER: 7 )
G00 X0.000 Y-35.000 Z0.000
G04 P.11
S18000
G04 P.44
S17000
G04 P.6
( CAPTURE NUMBER: 8 )
G00 X0.000 Y-40.000 Z0.000
G04 P.11
S18000
G04 P.44
S17000
G04 P.6
( CAPTURE NUMBER: 9 )
G00 X0.000 Y-45.000 Z0.000
G04 P.11
S18000
G04 P.44
S17000
G04 P.6
( CAPTURE NUMBER: 10 )
G00 X0.000 Y-50.000 Z0.000
G04 P.11
S18000
G04 P.44
S17000
G04 P.6
( CAPTURE NUMBER: 11 )
G00 X0.000 Y-55.000 Z0.000
G04 P.11
S18000
G04 P.44
S17000
G04 P.6
( CAPTURE NUMBER: 12 )
G00 X0.000 Y-60.000 Z0.000
G04 P.11
S18000
G04 P.44
S17000
G04 P.6
( CAPTURE NUMBER: 13 )
G00 X0.000 Y-65.000 Z0.000
G04 P.11
S18000
G04 P.44
S17000
G04 P.6
( CAPTURE NUMBER: 14 )
G00 X0.000 Y-70.000 Z0.000
G04 P.11
S18000
G04 P.44
S17000
G04 P.6
( CAPTURE NUMBER: 15 )
G00 X0.000 Y-75.000 Z0.000
G04 P.11
S18000
G04 P.44
S17000
G04 P.6
( CAPTURE NUMBER: 16 )
G00 X0.000 Y-80.000 Z0.000
G04 P.11
S18000
G04 P.44
S17000
G04 P.6
( CAPTURE NUMBER: 17 )
G00 X0.000 Y-85.000 Z0.000
G04 P.11
S18000
G04 P.44
S17000
G04 P.6
( CAPTURE NUMBER: 18 )
G00 X0.000 Y-90.000 Z0.000
G04 P.11
S18000
G04 P.44
S17000
G04 P.6
( CAPTURE NUMBER: 19 )
G00 X0.000 Y-95.000 Z0.000
G04 P.11
S18000
G04 P.44
S17000
G04 P.6
( CAPTURE NUMBER: 20 )
G00 X0.000 Y-100.000 Z0.000
G04 P.11
S18000
G04 P.44
S17000
G04 P.6
( CAPTURE NUMBER: 21 )
G00 X0.000 Y-105.000 Z0.000
G04 P.11
S18000
G04 P.44
S17000
G04 P.6
( CAPTURE NUMBER: 22 )
G00 X0.000 Y-110.000 Z0.000
G04 P.11
S18000
G04 P.44
S17000
G04 P.6
( CAPTURE NUMBER: 23 )
G00 X0.000 Y-115.000 Z0.000
G04 P.11
S18000
G04 P.44
S17000
G04 P.6
( CAPTURE NUMBER: 24 )
G00 X0.000 Y-120.000 Z0.000
G04 P.11
S18000
G04 P.44
S17000
G04 P.6
( CAPTURE NUMBER: 25 )
G00 X0.000 Y-125.000 Z0.000
G04 P.11
S18000
G04 P.44
S17000
G04 P.6
( CAPTURE NUMBER: 26 )
G00 X0.000 Y-130.000 Z0.000
G04 P.11
S18000
G04 P.44
S17000
G04 P.6
( CAPTURE NUMBER: 27 )
G00 X0.000 Y-135.000 Z0.000
G04 P.11
S18000
G04 P.44
S17000
G04 P.6
( CAPTURE NUMBER: 28 )
G00 X0.000 Y-140.000 Z0.000
G04 P.11
S18000
G04 P.44
S17000
G04 P.6
( CAPTURE NUMBER: 29 )
G00 X0.000 Y-145.000 Z0.000
G04 P.11
S18000
G04 P.44
S17000
G04 P.6
( CAPTURE NUMBER: 30 )
G00 X0.000 Y-150.000 Z0.000
G04 P.11
S18000
G04 P.44
S17000
G04 P.6
( CAPTURE NUMBER: 31 )
G00 X0.000 Y-155.000 Z0.000
G04 P.11
S18000
G04 P.44
S17000
G04 P.6
( CAPTURE NUMBER: 32 )
G00 X0.000 Y-160.000 Z0.000
G04 P.11
S18000
G04 P.44
S17000
G04 P.6
( CAPTURE NUMBER: 33 )
G00 X0.000 Y-165.000 Z0.000
G04 P.11
S18000
G04 P.44
S17000
G04 P.6
( CAPTURE NUMBER: 34 )
G00 X0.000 Y-170.000 Z0.000
G04 P.11
S18000
G04 P.44
S17000
G04 P.6
( CAPTURE NUMBER: 35 )
G00 X0.000 Y-175.000 Z0.000
G04 P.11
S18000
G04 P.44
S17000
G04 P.6
( CAPTURE NUMBER: 36 )
G00 X0.000 Y-180.000 Z0.000
G04 P.11
S18000
G04 P.44
S17000
G04 P.6
( CAPTURE NUMBER: 37 )
G00 X0.000 Y-185.000 Z0.000
G04 P.11
S18000
G04 P.44
S17000
G04 P.6
( CAPTURE NUMBER: 38 )
G00 X0.000 Y-190.000 Z0.000
G04 P.11
S18000
G04 P.44
S17000
G04 P.6
( CAPTURE NUMBER: 39 )
G00 X0.000 Y-195.000 Z0.000
G04 P.11
S18000
G04 P.44
S17000
G04 P.6
( CAPTURE NUMBER: 40 )
G00 X0.000 Y-200.000 Z0.000
G04 P.11
S18000
G04 P.44
S17000
G04 P.6
( CAPTURE NUMBER: 41 )
G00 X0.000 Y-205.000 Z0.000
G04 P.11
S18000
G04 P.44
S17000
G04 P.6
( CAPTURE NUMBER: 42 )
G00 X0.000 Y-210.000 Z0.000
G04 P.11
S18000
G04 P.44
S17000
G04 P.6
( CAPTURE NUMBER: 43 )
G00 X0.000 Y-215.000 Z0.000
G04 P.11
S18000
G04 P.44
S17000
G04 P.6
( CAPTURE NUMBER: 44 )
G00 X0.000 Y-220.000 Z0.000
G04 P.11
S18000
G04 P.44
S17000
G04 P.6
( CAPTURE NUMBER: 45 )
G00 X0.000 Y-225.000 Z0.000
G04 P.11
S18000
G04 P.44
S17000
G04 P.6
( CAPTURE NUMBER: 46 )
G00 X0.000 Y-230.000 Z0.000
G04 P.11
S18000
G04 P.44
S17000
G04 P.6
( CAPTURE NUMBER: 47 )
G00 X0.000 Y-235.000 Z0.000
G04 P.11
S18000
G04 P.44
S17000
G04 P.6
( CAPTURE NUMBER: 48 )
G00 X0.000 Y-240.000 Z0.000
G04 P.11
S18000
G04 P.44
S17000
G04 P.6
( CAPTURE NUMBER: 49 )
G00 X0.000 Y-245.000 Z0.000
G04 P.11
S18000
G04 P.44
S17000
G04 P.6
( CAPTURE NUMBER: 50 )
G00 X0.000 Y-250.000 Z0.000
G04 P.11
S18000
G04 P.44
S17000
G04 P.6
( CAPTURE NUMBER: 51 )
G00 X0.000 Y-255.000 Z0.000
G04 P.11
S18000
G04 P.44
S17000
G04 P.6
( CAPTURE NUMBER: 52 )
G00 X0.000 Y-260.000 Z0.000
G04 P.11
S18000
G04 P.44
S17000
G04 P.6
( CAPTURE NUMBER: 53 )
G00 X0.000 Y-265.000 Z0.000
G04 P.11
S18000
G04 P.44
S17000
G04 P.6
( CAPTURE NUMBER: 54 )
G00 X0.000 Y-270.000 Z0.000
G04 P.11
S18000
G04 P.44
S17000
G04 P.6
( CAPTURE NUMBER: 55 )
G00 X0.000 Y-275.000 Z0.000
G04 P.11
S18000
G04 P.44
S17000
G04 P.6
( CAPTURE NUMBER: 56 )
G00 X0.000 Y-280.000 Z0.000
G04 P.11
S18000
G04 P.44
S17000
G04 P.6
( CAPTURE NUMBER: 57 )
G00 X0.000 Y-285.000 Z0.000
G04 P.11
S18000
G04 P.44
S17000
G04 P.6
( CAPTURE NUMBER: 58 )
G00 X0.000 Y-290.000 Z0.000
G04 P.11
S18000
G04 P.44
S17000
G04 P.6
( CAPTURE NUMBER: 59 )
G00 X0.000 Y-295.000 Z0.000
G04 P.11
S18000
G04 P.44
S17000
G04 P.6
( CAPTURE NUMBER: 60 )
G00 X0.000 Y-300.000 Z0.000
G04 P.11
S18000
G04 P.44
S17000
G04 P.6
( CAPTURE NUMBER: 61 )
G00 X0.000 Y-305.000 Z0.000
G04 P.11
S18000
G04 P.44
S17000
G04 P.6
( CAPTURE NUMBER: 62 )
G00 X0.000 Y-310.000 Z0.000
G04 P.11
S18000
G04 P.44
S17000
G04 P.6
( CAPTURE NUMBER: 63 )
G00 X0.000 Y-315.000 Z0.000
G04 P.11
S18000
G04 P.44
S17000
G04 P.6
( CAPTURE NUMBER: 64 )
G00 X0.000 Y-320.000 Z0.000
G04 P.11
S18000
G04 P.44
S17000
G04 P.6
( CAPTURE NUMBER: 65 )
G00 X0.000 Y-325.000 Z0.000
G04 P.11
S18000
G04 P.44
S17000
G04 P.6
( CAPTURE NUMBER: 66 )
G00 X0.000 Y-330.000 Z0.000
G04 P.11
S18000
G04 P.44
S17000
G04 P.6
( CAPTURE NUMBER: 67 )
G00 X0.000 Y-335.000 Z0.000
G04 P.11
S18000
G04 P.44
S17000
G04 P.6
( CAPTURE NUMBER: 68 )
G00 X0.000 Y-340.000 Z0.000
G04 P.11
S18000
G04 P.44
S17000
G04 P.6
( CAPTURE NUMBER: 69 )
G00 X0.000 Y-345.000 Z0.000
G04 P.11
S18000
G04 P.44
S17000
G04 P.6
( CAPTURE NUMBER: 70 )
G00 X0.000 Y-350.000 Z0.000
G04 P.11
S18000
G04 P.44
S17000
G04 P.6
( HALT TO STANDARDIZE TIME INTERVALS )
G04 P.412
( CAPTURE NUMBER: 71 )
G00 X0.000 Y-350.000 Z0.000
G04 P.11
S18000
G04 P.44
S17000
G04 P.6
( CAPTURE NUMBER: 72 )
G00 X0.000 Y-345.000 Z0.000
G04 P.11
S18000
G04 P.44
S17000
G04 P.6
( CAPTURE NUMBER: 73 )
G00 X0.000 Y-340.000 Z0.000
G04 P.11
S18000
G04 P.44
S17000
G04 P.6
( CAPTURE NUMBER: 74 )
G00 X0.000 Y-335.000 Z0.000
G04 P.11
S18000
G04 P.44
S17000
G04 P.6
( CAPTURE NUMBER: 75 )
G00 X0.000 Y-330.000 Z0.000
G04 P.11
S18000
G04 P.44
S17000
G04 P.6
( CAPTURE NUMBER: 76 )
G00 X0.000 Y-325.000 Z0.000
G04 P.11
S18000
G04 P.44
S17000
G04 P.6
( CAPTURE NUMBER: 77 )
G00 X0.000 Y-320.000 Z0.000
G04 P.11
S18000
G04 P.44
S17000
G04 P.6
( CAPTURE NUMBER: 78 )
G00 X0.000 Y-315.000 Z0.000
G04 P.11
S18000
G04 P.44
S17000
G04 P.6
( CAPTURE NUMBER: 79 )
G00 X0.000 Y-310.000 Z0.000
G04 P.11
S18000
G04 P.44
S17000
G04 P.6
( CAPTURE NUMBER: 80 )
G00 X0.000 Y-305.000 Z0.000
G04 P.11
S18000
G04 P.44
S17000
G04 P.6
( CAPTURE NUMBER: 81 )
G00 X0.000 Y-300.000 Z0.000
G04 P.11
S18000
G04 P.44
S17000
G04 P.6
( CAPTURE NUMBER: 82 )
G00 X0.000 Y-295.000 Z0.000
G04 P.11
S18000
G04 P.44
S17000
G04 P.6
( CAPTURE NUMBER: 83 )
G00 X0.000 Y-290.000 Z0.000
G04 P.11
S18000
G04 P.44
S17000
G04 P.6
( CAPTURE NUMBER: 84 )
G00 X0.000 Y-285.000 Z0.000
G04 P.11
S18000
G04 P.44
S17000
G04 P.6
( CAPTURE NUMBER: 85 )
G00 X0.000 Y-280.000 Z0.000
G04 P.11
S18000
G04 P.44
S17000
G04 P.6
( CAPTURE NUMBER: 86 )
G00 X0.000 Y-275.000 Z0.000
G04 P.11
S18000
G04 P.44
S17000
G04 P.6
( CAPTURE NUMBER: 87 )
G00 X0.000 Y-270.000 Z0.000
G04 P.11
S18000
G04 P.44
S17000
G04 P.6
( CAPTURE NUMBER: 88 )
G00 X0.000 Y-265.000 Z0.000
G04 P.11
S18000
G04 P.44
S17000
G04 P.6
( CAPTURE NUMBER: 89 )
G00 X0.000 Y-260.000 Z0.000
G04 P.11
S18000
G04 P.44
S17000
G04 P.6
( CAPTURE NUMBER: 90 )
G00 X0.000 Y-255.000 Z0.000
G04 P.11
S18000
G04 P.44
S17000
G04 P.6
( CAPTURE NUMBER: 91 )
G00 X0.000 Y-250.000 Z0.000
G04 P.11
S18000
G04 P.44
S17000
G04 P.6
( CAPTURE NUMBER: 92 )
G00 X0.000 Y-245.000 Z0.000
G04 P.11
S18000
G04 P.44
S17000
G04 P.6
( CAPTURE NUMBER: 93 )
G00 X0.000 Y-240.000 Z0.000
G04 P.11
S18000
G04 P.44
S17000
G04 P.6
( CAPTURE NUMBER: 94 )
G00 X0.000 Y-235.000 Z0.000
G04 P.11
S18000
G04 P.44
S17000
G04 P.6
( CAPTURE NUMBER: 95 )
G00 X0.000 Y-230.000 Z0.000
G04 P.11
S18000
G04 P.44
S17000
G04 P.6
( CAPTURE NUMBER: 96 )
G00 X0.000 Y-225.000 Z0.000
G04 P.11
S18000
G04 P.44
S17000
G04 P.6
( CAPTURE NUMBER: 97 )
G00 X0.000 Y-220.000 Z0.000
G04 P.11
S18000
G04 P.44
S17000
G04 P.6
( CAPTURE NUMBER: 98 )
G00 X0.000 Y-215.000 Z0.000
G04 P.11
S18000
G04 P.44
S17000
G04 P.6
( CAPTURE NUMBER: 99 )
G00 X0.000 Y-210.000 Z0.000
G04 P.11
S18000
G04 P.44
S17000
G04 P.6
( CAPTURE NUMBER: 100 )
G00 X0.000 Y-205.000 Z0.000
G04 P.11
S18000
G04 P.44
S17000
G04 P.6
( CAPTURE NUMBER: 101 )
G00 X0.000 Y-200.000 Z0.000
G04 P.11
S18000
G04 P.44
S17000
G04 P.6
( CAPTURE NUMBER: 102 )
G00 X0.000 Y-195.000 Z0.000
G04 P.11
S18000
G04 P.44
S17000
G04 P.6
( CAPTURE NUMBER: 103 )
G00 X0.000 Y-190.000 Z0.000
G04 P.11
S18000
G04 P.44
S17000
G04 P.6
( CAPTURE NUMBER: 104 )
G00 X0.000 Y-185.000 Z0.000
G04 P.11
S18000
G04 P.44
S17000
G04 P.6
( CAPTURE NUMBER: 105 )
G00 X0.000 Y-180.000 Z0.000
G04 P.11
S18000
G04 P.44
S17000
G04 P.6
( CAPTURE NUMBER: 106 )
G00 X0.000 Y-175.000 Z0.000
G04 P.11
S18000
G04 P.44
S17000
G04 P.6
( CAPTURE NUMBER: 107 )
G00 X0.000 Y-170.000 Z0.000
G04 P.11
S18000
G04 P.44
S17000
G04 P.6
( CAPTURE NUMBER: 108 )
G00 X0.000 Y-165.000 Z0.000
G04 P.11
S18000
G04 P.44
S17000
G04 P.6
( CAPTURE NUMBER: 109 )
G00 X0.000 Y-160.000 Z0.000
G04 P.11
S18000
G04 P.44
S17000
G04 P.6
( CAPTURE NUMBER: 110 )
G00 X0.000 Y-155.000 Z0.000
G04 P.11
S18000
G04 P.44
S17000
G04 P.6
( CAPTURE NUMBER: 111 )
G00 X0.000 Y-150.000 Z0.000
G04 P.11
S18000
G04 P.44
S17000
G04 P.6
( CAPTURE NUMBER: 112 )
G00 X0.000 Y-145.000 Z0.000
G04 P.11
S18000
G04 P.44
S17000
G04 P.6
( CAPTURE NUMBER: 113 )
G00 X0.000 Y-140.000 Z0.000
G04 P.11
S18000
G04 P.44
S17000
G04 P.6
( CAPTURE NUMBER: 114 )
G00 X0.000 Y-135.000 Z0.000
G04 P.11
S18000
G04 P.44
S17000
G04 P.6
( CAPTURE NUMBER: 115 )
G00 X0.000 Y-130.000 Z0.000
G04 P.11
S18000
G04 P.44
S17000
G04 P.6
( CAPTURE NUMBER: 116 )
G00 X0.000 Y-125.000 Z0.000
G04 P.11
S18000
G04 P.44
S17000
G04 P.6
( CAPTURE NUMBER: 117 )
G00 X0.000 Y-120.000 Z0.000
G04 P.11
S18000
G04 P.44
S17000
G04 P.6
( CAPTURE NUMBER: 118 )
G00 X0.000 Y-115.000 Z0.000
G04 P.11
S18000
G04 P.44
S17000
G04 P.6
( CAPTURE NUMBER: 119 )
G00 X0.000 Y-110.000 Z0.000
G04 P.11
S18000
G04 P.44
S17000
G04 P.6
( CAPTURE NUMBER: 120 )
G00 X0.000 Y-105.000 Z0.000
G04 P.11
S18000
G04 P.44
S17000
G04 P.6
( CAPTURE NUMBER: 121 )
G00 X0.000 Y-100.000 Z0.000
G04 P.11
S18000
G04 P.44
S17000
G04 P.6
( CAPTURE NUMBER: 122 )
G00 X0.000 Y-95.000 Z0.000
G04 P.11
S18000
G04 P.44
S17000
G04 P.6
( CAPTURE NUMBER: 123 )
G00 X0.000 Y-90.000 Z0.000
G04 P.11
S18000
G04 P.44
S17000
G04 P.6
( CAPTURE NUMBER: 124 )
G00 X0.000 Y-85.000 Z0.000
G04 P.11
S18000
G04 P.44
S17000
G04 P.6
( CAPTURE NUMBER: 125 )
G00 X0.000 Y-80.000 Z0.000
G04 P.11
S18000
G04 P.44
S17000
G04 P.6
( CAPTURE NUMBER: 126 )
G00 X0.000 Y-75.000 Z0.000
G04 P.11
S18000
G04 P.44
S17000
G04 P.6
( CAPTURE NUMBER: 127 )
G00 X0.000 Y-70.000 Z0.000
G04 P.11
S18000
G04 P.44
S17000
G04 P.6
( CAPTURE NUMBER: 128 )
G00 X0.000 Y-65.000 Z0.000
G04 P.11
S18000
G04 P.44
S17000
G04 P.6
( CAPTURE NUMBER: 129 )
G00 X0.000 Y-60.000 Z0.000
G04 P.11
S18000
G04 P.44
S17000
G04 P.6
( CAPTURE NUMBER: 130 )
G00 X0.000 Y-55.000 Z0.000
G04 P.11
S18000
G04 P.44
S17000
G04 P.6
( CAPTURE NUMBER: 131 )
G00 X0.000 Y-50.000 Z0.000
G04 P.11
S18000
G04 P.44
S17000
G04 P.6
( CAPTURE NUMBER: 132 )
G00 X0.000 Y-45.000 Z0.000
G04 P.11
S18000
G04 P.44
S17000
G04 P.6
( CAPTURE NUMBER: 133 )
G00 X0.000 Y-40.000 Z0.000
G04 P.11
S18000
G04 P.44
S17000
G04 P.6
( CAPTURE NUMBER: 134 )
G00 X0.000 Y-35.000 Z0.000
G04 P.11
S18000
G04 P.44
S17000
G04 P.6
( CAPTURE NUMBER: 135 )
G00 X0.000 Y-30.000 Z0.000
G04 P.11
S18000
G04 P.44
S17000
G04 P.6
( CAPTURE NUMBER: 136 )
G00 X0.000 Y-25.000 Z0.000
G04 P.11
S18000
G04 P.44
S17000
G04 P.6
( CAPTURE NUMBER: 137 )
G00 X0.000 Y-20.000 Z0.000
G04 P.11
S18000
G04 P.44
S17000
G04 P.6
( CAPTURE NUMBER: 138 )
G00 X0.000 Y-15.000 Z0.000
G04 P.11
S18000
G04 P.44
S17000
G04 P.6
( CAPTURE NUMBER: 139 )
G00 X0.000 Y-10.000 Z0.000
G04 P.11
S18000
G04 P.44
S17000
G04 P.6
( CAPTURE NUMBER: 140 )
G00 X0.000 Y-5.000 Z0.000
G04 P.11
S18000
G04 P.44
S17000
G04 P.6
( CAPTURE NUMBER: 141 )
G00 X0.000 Y0.000 Z0.000
G04 P.11
S18000
G04 P.44
S17000
G04 P.6
( HALT TO STANDARDIZE TIME INTERVALS )
G04 P.412
( CAPTURE NUMBER: 142 )
G00 X0.000 Y0.000 Z0.000
G04 P.11
S18000
G04 P.44
S17000
G04 P.6
( CAPTURE NUMBER: 143 )
G00 X0.000 Y-5.000 Z0.000
G04 P.11
S18000
G04 P.44
S17000
G04 P.6
( CAPTURE NUMBER: 144 )
G00 X0.000 Y-10.000 Z0.000
G04 P.11
S18000
G04 P.44
S17000
G04 P.6
( CAPTURE NUMBER: 145 )
G00 X0.000 Y-15.000 Z0.000
G04 P.11
S18000
G04 P.44
S17000
G04 P.6
( CAPTURE NUMBER: 146 )
G00 X0.000 Y-20.000 Z0.000
G04 P.11
S18000
G04 P.44
S17000
G04 P.6
( CAPTURE NUMBER: 147 )
G00 X0.000 Y-25.000 Z0.000
G04 P.11
S18000
G04 P.44
S17000
G04 P.6
( CAPTURE NUMBER: 148 )
G00 X0.000 Y-30.000 Z0.000
G04 P.11
S18000
G04 P.44
S17000
G04 P.6
( CAPTURE NUMBER: 149 )
G00 X0.000 Y-35.000 Z0.000
G04 P.11
S18000
G04 P.44
S17000
G04 P.6
( CAPTURE NUMBER: 150 )
G00 X0.000 Y-40.000 Z0.000
G04 P.11
S18000
G04 P.44
S17000
G04 P.6
( CAPTURE NUMBER: 151 )
G00 X0.000 Y-45.000 Z0.000
G04 P.11
S18000
G04 P.44
S17000
G04 P.6
( CAPTURE NUMBER: 152 )
G00 X0.000 Y-50.000 Z0.000
G04 P.11
S18000
G04 P.44
S17000
G04 P.6
( CAPTURE NUMBER: 153 )
G00 X0.000 Y-55.000 Z0.000
G04 P.11
S18000
G04 P.44
S17000
G04 P.6
( CAPTURE NUMBER: 154 )
G00 X0.000 Y-60.000 Z0.000
G04 P.11
S18000
G04 P.44
S17000
G04 P.6
( CAPTURE NUMBER: 155 )
G00 X0.000 Y-65.000 Z0.000
G04 P.11
S18000
G04 P.44
S17000
G04 P.6
( CAPTURE NUMBER: 156 )
G00 X0.000 Y-70.000 Z0.000
G04 P.11
S18000
G04 P.44
S17000
G04 P.6
( CAPTURE NUMBER: 157 )
G00 X0.000 Y-75.000 Z0.000
G04 P.11
S18000
G04 P.44
S17000
G04 P.6
( CAPTURE NUMBER: 158 )
G00 X0.000 Y-80.000 Z0.000
G04 P.11
S18000
G04 P.44
S17000
G04 P.6
( CAPTURE NUMBER: 159 )
G00 X0.000 Y-85.000 Z0.000
G04 P.11
S18000
G04 P.44
S17000
G04 P.6
( CAPTURE NUMBER: 160 )
G00 X0.000 Y-90.000 Z0.000
G04 P.11
S18000
G04 P.44
S17000
G04 P.6
( CAPTURE NUMBER: 161 )
G00 X0.000 Y-95.000 Z0.000
G04 P.11
S18000
G04 P.44
S17000
G04 P.6
( CAPTURE NUMBER: 162 )
G00 X0.000 Y-100.000 Z0.000
G04 P.11
S18000
G04 P.44
S17000
G04 P.6
( CAPTURE NUMBER: 163 )
G00 X0.000 Y-105.000 Z0.000
G04 P.11
S18000
G04 P.44
S17000
G04 P.6
( CAPTURE NUMBER: 164 )
G00 X0.000 Y-110.000 Z0.000
G04 P.11
S18000
G04 P.44
S17000
G04 P.6
( CAPTURE NUMBER: 165 )
G00 X0.000 Y-115.000 Z0.000
G04 P.11
S18000
G04 P.44
S17000
G04 P.6
( CAPTURE NUMBER: 166 )
G00 X0.000 Y-120.000 Z0.000
G04 P.11
S18000
G04 P.44
S17000
G04 P.6
( CAPTURE NUMBER: 167 )
G00 X0.000 Y-125.000 Z0.000
G04 P.11
S18000
G04 P.44
S17000
G04 P.6
( CAPTURE NUMBER: 168 )
G00 X0.000 Y-130.000 Z0.000
G04 P.11
S18000
G04 P.44
S17000
G04 P.6
( CAPTURE NUMBER: 169 )
G00 X0.000 Y-135.000 Z0.000
G04 P.11
S18000
G04 P.44
S17000
G04 P.6
( CAPTURE NUMBER: 170 )
G00 X0.000 Y-140.000 Z0.000
G04 P.11
S18000
G04 P.44
S17000
G04 P.6
( CAPTURE NUMBER: 171 )
G00 X0.000 Y-145.000 Z0.000
G04 P.11
S18000
G04 P.44
S17000
G04 P.6
( CAPTURE NUMBER: 172 )
G00 X0.000 Y-150.000 Z0.000
G04 P.11
S18000
G04 P.44
S17000
G04 P.6
( CAPTURE NUMBER: 173 )
G00 X0.000 Y-155.000 Z0.000
G04 P.11
S18000
G04 P.44
S17000
G04 P.6
( CAPTURE NUMBER: 174 )
G00 X0.000 Y-160.000 Z0.000
G04 P.11
S18000
G04 P.44
S17000
G04 P.6
( CAPTURE NUMBER: 175 )
G00 X0.000 Y-165.000 Z0.000
G04 P.11
S18000
G04 P.44
S17000
G04 P.6
( CAPTURE NUMBER: 176 )
G00 X0.000 Y-170.000 Z0.000
G04 P.11
S18000
G04 P.44
S17000
G04 P.6
( CAPTURE NUMBER: 177 )
G00 X0.000 Y-175.000 Z0.000
G04 P.11
S18000
G04 P.44
S17000
G04 P.6
( CAPTURE NUMBER: 178 )
G00 X0.000 Y-180.000 Z0.000
G04 P.11
S18000
G04 P.44
S17000
G04 P.6
( CAPTURE NUMBER: 179 )
G00 X0.000 Y-185.000 Z0.000
G04 P.11
S18000
G04 P.44
S17000
G04 P.6
( CAPTURE NUMBER: 180 )
G00 X0.000 Y-190.000 Z0.000
G04 P.11
S18000
G04 P.44
S17000
G04 P.6
( CAPTURE NUMBER: 181 )
G00 X0.000 Y-195.000 Z0.000
G04 P.11
S18000
G04 P.44
S17000
G04 P.6
( CAPTURE NUMBER: 182 )
G00 X0.000 Y-200.000 Z0.000
G04 P.11
S18000
G04 P.44
S17000
G04 P.6
( CAPTURE NUMBER: 183 )
G00 X0.000 Y-205.000 Z0.000
G04 P.11
S18000
G04 P.44
S17000
G04 P.6
( CAPTURE NUMBER: 184 )
G00 X0.000 Y-210.000 Z0.000
G04 P.11
S18000
G04 P.44
S17000
G04 P.6
( CAPTURE NUMBER: 185 )
G00 X0.000 Y-215.000 Z0.000
G04 P.11
S18000
G04 P.44
S17000
G04 P.6
( CAPTURE NUMBER: 186 )
G00 X0.000 Y-220.000 Z0.000
G04 P.11
S18000
G04 P.44
S17000
G04 P.6
( CAPTURE NUMBER: 187 )
G00 X0.000 Y-225.000 Z0.000
G04 P.11
S18000
G04 P.44
S17000
G04 P.6
( CAPTURE NUMBER: 188 )
G00 X0.000 Y-230.000 Z0.000
G04 P.11
S18000
G04 P.44
S17000
G04 P.6
( CAPTURE NUMBER: 189 )
G00 X0.000 Y-235.000 Z0.000
G04 P.11
S18000
G04 P.44
S17000
G04 P.6
( CAPTURE NUMBER: 190 )
G00 X0.000 Y-240.000 Z0.000
G04 P.11
S18000
G04 P.44
S17000
G04 P.6
( CAPTURE NUMBER: 191 )
G00 X0.000 Y-245.000 Z0.000
G04 P.11
S18000
G04 P.44
S17000
G04 P.6
( CAPTURE NUMBER: 192 )
G00 X0.000 Y-250.000 Z0.000
G04 P.11
S18000
G04 P.44
S17000
G04 P.6
( CAPTURE NUMBER: 193 )
G00 X0.000 Y-255.000 Z0.000
G04 P.11
S18000
G04 P.44
S17000
G04 P.6
( CAPTURE NUMBER: 194 )
G00 X0.000 Y-260.000 Z0.000
G04 P.11
S18000
G04 P.44
S17000
G04 P.6
( CAPTURE NUMBER: 195 )
G00 X0.000 Y-265.000 Z0.000
G04 P.11
S18000
G04 P.44
S17000
G04 P.6
( CAPTURE NUMBER: 196 )
G00 X0.000 Y-270.000 Z0.000
G04 P.11
S18000
G04 P.44
S17000
G04 P.6
( CAPTURE NUMBER: 197 )
G00 X0.000 Y-275.000 Z0.000
G04 P.11
S18000
G04 P.44
S17000
G04 P.6
( CAPTURE NUMBER: 198 )
G00 X0.000 Y-280.000 Z0.000
G04 P.11
S18000
G04 P.44
S17000
G04 P.6
( CAPTURE NUMBER: 199 )
G00 X0.000 Y-285.000 Z0.000
G04 P.11
S18000
G04 P.44
S17000
G04 P.6
( CAPTURE NUMBER: 200 )
G00 X0.000 Y-290.000 Z0.000
G04 P.11
S18000
G04 P.44
S17000
G04 P.6
( CAPTURE NUMBER: 201 )
G00 X0.000 Y-295.000 Z0.000
G04 P.11
S18000
G04 P.44
S17000
G04 P.6
( CAPTURE NUMBER: 202 )
G00 X0.000 Y-300.000 Z0.000
G04 P.11
S18000
G04 P.44
S17000
G04 P.6
( CAPTURE NUMBER: 203 )
G00 X0.000 Y-305.000 Z0.000
G04 P.11
S18000
G04 P.44
S17000
G04 P.6
( CAPTURE NUMBER: 204 )
G00 X0.000 Y-310.000 Z0.000
G04 P.11
S18000
G04 P.44
S17000
G04 P.6
( CAPTURE NUMBER: 205 )
G00 X0.000 Y-315.000 Z0.000
G04 P.11
S18000
G04 P.44
S17000
G04 P.6
( CAPTURE NUMBER: 206 )
G00 X0.000 Y-320.000 Z0.000
G04 P.11
S18000
G04 P.44
S17000
G04 P.6
( CAPTURE NUMBER: 207 )
G00 X0.000 Y-325.000 Z0.000
G04 P.11
S18000
G04 P.44
S17000
G04 P.6
( CAPTURE NUMBER: 208 )
G00 X0.000 Y-330.000 Z0.000
G04 P.11
S18000
G04 P.44
S17000
G04 P.6
( CAPTURE NUMBER: 209 )
G00 X0.000 Y-335.000 Z0.000
G04 P.11
S18000
G04 P.44
S17000
G04 P.6
( CAPTURE NUMBER: 210 )
G00 X0.000 Y-340.000 Z0.000
G04 P.11
S18000
G04 P.44
S17000
G04 P.6
( CAPTURE NUMBER: 211 )
G00 X0.000 Y-345.000 Z0.000
G04 P.11
S18000
G04 P.44
S17000
G04 P.6
( CAPTURE NUMBER: 212 )
G00 X0.000 Y-350.000 Z0.000
G04 P.11
S18000
G04 P.44
S17000
G04 P.6
( HALT TO STANDARDIZE TIME INTERVALS )
G04 P.412
( CAPTURE NUMBER: 213 )
G00 X0.000 Y-350.000 Z0.000
G04 P.11
S18000
G04 P.44
S17000
G04 P.6
( CAPTURE NUMBER: 214 )
G00 X0.000 Y-345.000 Z0.000
G04 P.11
S18000
G04 P.44
S17000
G04 P.6
( CAPTURE NUMBER: 215 )
G00 X0.000 Y-340.000 Z0.000
G04 P.11
S18000
G04 P.44
S17000
G04 P.6
( CAPTURE NUMBER: 216 )
G00 X0.000 Y-335.000 Z0.000
G04 P.11
S18000
G04 P.44
S17000
G04 P.6
( CAPTURE NUMBER: 217 )
G00 X0.000 Y-330.000 Z0.000
G04 P.11
S18000
G04 P.44
S17000
G04 P.6
( CAPTURE NUMBER: 218 )
G00 X0.000 Y-325.000 Z0.000
G04 P.11
S18000
G04 P.44
S17000
G04 P.6
( CAPTURE NUMBER: 219 )
G00 X0.000 Y-320.000 Z0.000
G04 P.11
S18000
G04 P.44
S17000
G04 P.6
( CAPTURE NUMBER: 220 )
G00 X0.000 Y-315.000 Z0.000
G04 P.11
S18000
G04 P.44
S17000
G04 P.6
( CAPTURE NUMBER: 221 )
G00 X0.000 Y-310.000 Z0.000
G04 P.11
S18000
G04 P.44
S17000
G04 P.6
( CAPTURE NUMBER: 222 )
G00 X0.000 Y-305.000 Z0.000
G04 P.11
S18000
G04 P.44
S17000
G04 P.6
( CAPTURE NUMBER: 223 )
G00 X0.000 Y-300.000 Z0.000
G04 P.11
S18000
G04 P.44
S17000
G04 P.6
( CAPTURE NUMBER: 224 )
G00 X0.000 Y-295.000 Z0.000
G04 P.11
S18000
G04 P.44
S17000
G04 P.6
( CAPTURE NUMBER: 225 )
G00 X0.000 Y-290.000 Z0.000
G04 P.11
S18000
G04 P.44
S17000
G04 P.6
( CAPTURE NUMBER: 226 )
G00 X0.000 Y-285.000 Z0.000
G04 P.11
S18000
G04 P.44
S17000
G04 P.6
( CAPTURE NUMBER: 227 )
G00 X0.000 Y-280.000 Z0.000
G04 P.11
S18000
G04 P.44
S17000
G04 P.6
( CAPTURE NUMBER: 228 )
G00 X0.000 Y-275.000 Z0.000
G04 P.11
S18000
G04 P.44
S17000
G04 P.6
( CAPTURE NUMBER: 229 )
G00 X0.000 Y-270.000 Z0.000
G04 P.11
S18000
G04 P.44
S17000
G04 P.6
( CAPTURE NUMBER: 230 )
G00 X0.000 Y-265.000 Z0.000
G04 P.11
S18000
G04 P.44
S17000
G04 P.6
( CAPTURE NUMBER: 231 )
G00 X0.000 Y-260.000 Z0.000
G04 P.11
S18000
G04 P.44
S17000
G04 P.6
( CAPTURE NUMBER: 232 )
G00 X0.000 Y-255.000 Z0.000
G04 P.11
S18000
G04 P.44
S17000
G04 P.6
( CAPTURE NUMBER: 233 )
G00 X0.000 Y-250.000 Z0.000
G04 P.11
S18000
G04 P.44
S17000
G04 P.6
( CAPTURE NUMBER: 234 )
G00 X0.000 Y-245.000 Z0.000
G04 P.11
S18000
G04 P.44
S17000
G04 P.6
( CAPTURE NUMBER: 235 )
G00 X0.000 Y-240.000 Z0.000
G04 P.11
S18000
G04 P.44
S17000
G04 P.6
( CAPTURE NUMBER: 236 )
G00 X0.000 Y-235.000 Z0.000
G04 P.11
S18000
G04 P.44
S17000
G04 P.6
( CAPTURE NUMBER: 237 )
G00 X0.000 Y-230.000 Z0.000
G04 P.11
S18000
G04 P.44
S17000
G04 P.6
( CAPTURE NUMBER: 238 )
G00 X0.000 Y-225.000 Z0.000
G04 P.11
S18000
G04 P.44
S17000
G04 P.6
( CAPTURE NUMBER: 239 )
G00 X0.000 Y-220.000 Z0.000
G04 P.11
S18000
G04 P.44
S17000
G04 P.6
( CAPTURE NUMBER: 240 )
G00 X0.000 Y-215.000 Z0.000
G04 P.11
S18000
G04 P.44
S17000
G04 P.6
( CAPTURE NUMBER: 241 )
G00 X0.000 Y-210.000 Z0.000
G04 P.11
S18000
G04 P.44
S17000
G04 P.6
( CAPTURE NUMBER: 242 )
G00 X0.000 Y-205.000 Z0.000
G04 P.11
S18000
G04 P.44
S17000
G04 P.6
( CAPTURE NUMBER: 243 )
G00 X0.000 Y-200.000 Z0.000
G04 P.11
S18000
G04 P.44
S17000
G04 P.6
( CAPTURE NUMBER: 244 )
G00 X0.000 Y-195.000 Z0.000
G04 P.11
S18000
G04 P.44
S17000
G04 P.6
( CAPTURE NUMBER: 245 )
G00 X0.000 Y-190.000 Z0.000
G04 P.11
S18000
G04 P.44
S17000
G04 P.6
( CAPTURE NUMBER: 246 )
G00 X0.000 Y-185.000 Z0.000
G04 P.11
S18000
G04 P.44
S17000
G04 P.6
( CAPTURE NUMBER: 247 )
G00 X0.000 Y-180.000 Z0.000
G04 P.11
S18000
G04 P.44
S17000
G04 P.6
( CAPTURE NUMBER: 248 )
G00 X0.000 Y-175.000 Z0.000
G04 P.11
S18000
G04 P.44
S17000
G04 P.6
( CAPTURE NUMBER: 249 )
G00 X0.000 Y-170.000 Z0.000
G04 P.11
S18000
G04 P.44
S17000
G04 P.6
( CAPTURE NUMBER: 250 )
G00 X0.000 Y-165.000 Z0.000
G04 P.11
S18000
G04 P.44
S17000
G04 P.6
( CAPTURE NUMBER: 251 )
G00 X0.000 Y-160.000 Z0.000
G04 P.11
S18000
G04 P.44
S17000
G04 P.6
( CAPTURE NUMBER: 252 )
G00 X0.000 Y-155.000 Z0.000
G04 P.11
S18000
G04 P.44
S17000
G04 P.6
( CAPTURE NUMBER: 253 )
G00 X0.000 Y-150.000 Z0.000
G04 P.11
S18000
G04 P.44
S17000
G04 P.6
( CAPTURE NUMBER: 254 )
G00 X0.000 Y-145.000 Z0.000
G04 P.11
S18000
G04 P.44
S17000
G04 P.6
( CAPTURE NUMBER: 255 )
G00 X0.000 Y-140.000 Z0.000
G04 P.11
S18000
G04 P.44
S17000
G04 P.6
( CAPTURE NUMBER: 256 )
G00 X0.000 Y-135.000 Z0.000
G04 P.11
S18000
G04 P.44
S17000
G04 P.6
( CAPTURE NUMBER: 257 )
G00 X0.000 Y-130.000 Z0.000
G04 P.11
S18000
G04 P.44
S17000
G04 P.6
( CAPTURE NUMBER: 258 )
G00 X0.000 Y-125.000 Z0.000
G04 P.11
S18000
G04 P.44
S17000
G04 P.6
( CAPTURE NUMBER: 259 )
G00 X0.000 Y-120.000 Z0.000
G04 P.11
S18000
G04 P.44
S17000
G04 P.6
( CAPTURE NUMBER: 260 )
G00 X0.000 Y-115.000 Z0.000
G04 P.11
S18000
G04 P.44
S17000
G04 P.6
( CAPTURE NUMBER: 261 )
G00 X0.000 Y-110.000 Z0.000
G04 P.11
S18000
G04 P.44
S17000
G04 P.6
( CAPTURE NUMBER: 262 )
G00 X0.000 Y-105.000 Z0.000
G04 P.11
S18000
G04 P.44
S17000
G04 P.6
( CAPTURE NUMBER: 263 )
G00 X0.000 Y-100.000 Z0.000
G04 P.11
S18000
G04 P.44
S17000
G04 P.6
( CAPTURE NUMBER: 264 )
G00 X0.000 Y-95.000 Z0.000
G04 P.11
S18000
G04 P.44
S17000
G04 P.6
( CAPTURE NUMBER: 265 )
G00 X0.000 Y-90.000 Z0.000
G04 P.11
S18000
G04 P.44
S17000
G04 P.6
( CAPTURE NUMBER: 266 )
G00 X0.000 Y-85.000 Z0.000
G04 P.11
S18000
G04 P.44
S17000
G04 P.6
( CAPTURE NUMBER: 267 )
G00 X0.000 Y-80.000 Z0.000
G04 P.11
S18000
G04 P.44
S17000
G04 P.6
( CAPTURE NUMBER: 268 )
G00 X0.000 Y-75.000 Z0.000
G04 P.11
S18000
G04 P.44
S17000
G04 P.6
( CAPTURE NUMBER: 269 )
G00 X0.000 Y-70.000 Z0.000
G04 P.11
S18000
G04 P.44
S17000
G04 P.6
( CAPTURE NUMBER: 270 )
G00 X0.000 Y-65.000 Z0.000
G04 P.11
S18000
G04 P.44
S17000
G04 P.6
( CAPTURE NUMBER: 271 )
G00 X0.000 Y-60.000 Z0.000
G04 P.11
S18000
G04 P.44
S17000
G04 P.6
( CAPTURE NUMBER: 272 )
G00 X0.000 Y-55.000 Z0.000
G04 P.11
S18000
G04 P.44
S17000
G04 P.6
( CAPTURE NUMBER: 273 )
G00 X0.000 Y-50.000 Z0.000
G04 P.11
S18000
G04 P.44
S17000
G04 P.6
( CAPTURE NUMBER: 274 )
G00 X0.000 Y-45.000 Z0.000
G04 P.11
S18000
G04 P.44
S17000
G04 P.6
( CAPTURE NUMBER: 275 )
G00 X0.000 Y-40.000 Z0.000
G04 P.11
S18000
G04 P.44
S17000
G04 P.6
( CAPTURE NUMBER: 276 )
G00 X0.000 Y-35.000 Z0.000
G04 P.11
S18000
G04 P.44
S17000
G04 P.6
( CAPTURE NUMBER: 277 )
G00 X0.000 Y-30.000 Z0.000
G04 P.11
S18000
G04 P.44
S17000
G04 P.6
( CAPTURE NUMBER: 278 )
G00 X0.000 Y-25.000 Z0.000
G04 P.11
S18000
G04 P.44
S17000
G04 P.6
( CAPTURE NUMBER: 279 )
G00 X0.000 Y-20.000 Z0.000
G04 P.11
S18000
G04 P.44
S17000
G04 P.6
( CAPTURE NUMBER: 280 )
G00 X0.000 Y-15.000 Z0.000
G04 P.11
S18000
G04 P.44
S17000
G04 P.6
( CAPTURE NUMBER: 281 )
G00 X0.000 Y-10.000 Z0.000
G04 P.11
S18000
G04 P.44
S17000
G04 P.6
( CAPTURE NUMBER: 282 )
G00 X0.000 Y-5.000 Z0.000
G04 P.11
S18000
G04 P.44
S17000
G04 P.6
( CAPTURE NUMBER: 283 )
G00 X0.000 Y0.000 Z0.000
G04 P.11
S18000
G04 P.44
S17000
G04 P.6
( HALT TO STANDARDIZE TIME INTERVALS )
G04 P.412
( CAPTURE NUMBER: 284 )
G00 X0.000 Y0.000 Z0.000
G04 P.11
S18000
G04 P.44
S17000
G04 P.6
( CAPTURE NUMBER: 285 )
G00 X0.000 Y-5.000 Z0.000
G04 P.11
S18000
G04 P.44
S17000
G04 P.6
( CAPTURE NUMBER: 286 )
G00 X0.000 Y-10.000 Z0.000
G04 P.11
S18000
G04 P.44
S17000
G04 P.6
( CAPTURE NUMBER: 287 )
G00 X0.000 Y-15.000 Z0.000
G04 P.11
S18000
G04 P.44
S17000
G04 P.6
( CAPTURE NUMBER: 288 )
G00 X0.000 Y-20.000 Z0.000
G04 P.11
S18000
G04 P.44
S17000
G04 P.6
( CAPTURE NUMBER: 289 )
G00 X0.000 Y-25.000 Z0.000
G04 P.11
S18000
G04 P.44
S17000
G04 P.6
( CAPTURE NUMBER: 290 )
G00 X0.000 Y-30.000 Z0.000
G04 P.11
S18000
G04 P.44
S17000
G04 P.6
( CAPTURE NUMBER: 291 )
G00 X0.000 Y-35.000 Z0.000
G04 P.11
S18000
G04 P.44
S17000
G04 P.6
( CAPTURE NUMBER: 292 )
G00 X0.000 Y-40.000 Z0.000
G04 P.11
S18000
G04 P.44
S17000
G04 P.6
( CAPTURE NUMBER: 293 )
G00 X0.000 Y-45.000 Z0.000
G04 P.11
S18000
G04 P.44
S17000
G04 P.6
( CAPTURE NUMBER: 294 )
G00 X0.000 Y-50.000 Z0.000
G04 P.11
S18000
G04 P.44
S17000
G04 P.6
( CAPTURE NUMBER: 295 )
G00 X0.000 Y-55.000 Z0.000
G04 P.11
S18000
G04 P.44
S17000
G04 P.6
( CAPTURE NUMBER: 296 )
G00 X0.000 Y-60.000 Z0.000
G04 P.11
S18000
G04 P.44
S17000
G04 P.6
( CAPTURE NUMBER: 297 )
G00 X0.000 Y-65.000 Z0.000
G04 P.11
S18000
G04 P.44
S17000
G04 P.6
( CAPTURE NUMBER: 298 )
G00 X0.000 Y-70.000 Z0.000
G04 P.11
S18000
G04 P.44
S17000
G04 P.6
( CAPTURE NUMBER: 299 )
G00 X0.000 Y-75.000 Z0.000
G04 P.11
S18000
G04 P.44
S17000
G04 P.6
( CAPTURE NUMBER: 300 )
G00 X0.000 Y-80.000 Z0.000
G04 P.11
S18000
G04 P.44
S17000
G04 P.6
( CAPTURE NUMBER: 301 )
G00 X0.000 Y-85.000 Z0.000
G04 P.11
S18000
G04 P.44
S17000
G04 P.6
( CAPTURE NUMBER: 302 )
G00 X0.000 Y-90.000 Z0.000
G04 P.11
S18000
G04 P.44
S17000
G04 P.6
( CAPTURE NUMBER: 303 )
G00 X0.000 Y-95.000 Z0.000
G04 P.11
S18000
G04 P.44
S17000
G04 P.6
( CAPTURE NUMBER: 304 )
G00 X0.000 Y-100.000 Z0.000
G04 P.11
S18000
G04 P.44
S17000
G04 P.6
( CAPTURE NUMBER: 305 )
G00 X0.000 Y-105.000 Z0.000
G04 P.11
S18000
G04 P.44
S17000
G04 P.6
( CAPTURE NUMBER: 306 )
G00 X0.000 Y-110.000 Z0.000
G04 P.11
S18000
G04 P.44
S17000
G04 P.6
( CAPTURE NUMBER: 307 )
G00 X0.000 Y-115.000 Z0.000
G04 P.11
S18000
G04 P.44
S17000
G04 P.6
( CAPTURE NUMBER: 308 )
G00 X0.000 Y-120.000 Z0.000
G04 P.11
S18000
G04 P.44
S17000
G04 P.6
( CAPTURE NUMBER: 309 )
G00 X0.000 Y-125.000 Z0.000
G04 P.11
S18000
G04 P.44
S17000
G04 P.6
( CAPTURE NUMBER: 310 )
G00 X0.000 Y-130.000 Z0.000
G04 P.11
S18000
G04 P.44
S17000
G04 P.6
( CAPTURE NUMBER: 311 )
G00 X0.000 Y-135.000 Z0.000
G04 P.11
S18000
G04 P.44
S17000
G04 P.6
( CAPTURE NUMBER: 312 )
G00 X0.000 Y-140.000 Z0.000
G04 P.11
S18000
G04 P.44
S17000
G04 P.6
( CAPTURE NUMBER: 313 )
G00 X0.000 Y-145.000 Z0.000
G04 P.11
S18000
G04 P.44
S17000
G04 P.6
( CAPTURE NUMBER: 314 )
G00 X0.000 Y-150.000 Z0.000
G04 P.11
S18000
G04 P.44
S17000
G04 P.6
( CAPTURE NUMBER: 315 )
G00 X0.000 Y-155.000 Z0.000
G04 P.11
S18000
G04 P.44
S17000
G04 P.6
( CAPTURE NUMBER: 316 )
G00 X0.000 Y-160.000 Z0.000
G04 P.11
S18000
G04 P.44
S17000
G04 P.6
( CAPTURE NUMBER: 317 )
G00 X0.000 Y-165.000 Z0.000
G04 P.11
S18000
G04 P.44
S17000
G04 P.6
( CAPTURE NUMBER: 318 )
G00 X0.000 Y-170.000 Z0.000
G04 P.11
S18000
G04 P.44
S17000
G04 P.6
( CAPTURE NUMBER: 319 )
G00 X0.000 Y-175.000 Z0.000
G04 P.11
S18000
G04 P.44
S17000
G04 P.6
( CAPTURE NUMBER: 320 )
G00 X0.000 Y-180.000 Z0.000
G04 P.11
S18000
G04 P.44
S17000
G04 P.6
( CAPTURE NUMBER: 321 )
G00 X0.000 Y-185.000 Z0.000
G04 P.11
S18000
G04 P.44
S17000
G04 P.6
( CAPTURE NUMBER: 322 )
G00 X0.000 Y-190.000 Z0.000
G04 P.11
S18000
G04 P.44
S17000
G04 P.6
( CAPTURE NUMBER: 323 )
G00 X0.000 Y-195.000 Z0.000
G04 P.11
S18000
G04 P.44
S17000
G04 P.6
( CAPTURE NUMBER: 324 )
G00 X0.000 Y-200.000 Z0.000
G04 P.11
S18000
G04 P.44
S17000
G04 P.6
( CAPTURE NUMBER: 325 )
G00 X0.000 Y-205.000 Z0.000
G04 P.11
S18000
G04 P.44
S17000
G04 P.6
( CAPTURE NUMBER: 326 )
G00 X0.000 Y-210.000 Z0.000
G04 P.11
S18000
G04 P.44
S17000
G04 P.6
( CAPTURE NUMBER: 327 )
G00 X0.000 Y-215.000 Z0.000
G04 P.11
S18000
G04 P.44
S17000
G04 P.6
( CAPTURE NUMBER: 328 )
G00 X0.000 Y-220.000 Z0.000
G04 P.11
S18000
G04 P.44
S17000
G04 P.6
( CAPTURE NUMBER: 329 )
G00 X0.000 Y-225.000 Z0.000
G04 P.11
S18000
G04 P.44
S17000
G04 P.6
( CAPTURE NUMBER: 330 )
G00 X0.000 Y-230.000 Z0.000
G04 P.11
S18000
G04 P.44
S17000
G04 P.6
( CAPTURE NUMBER: 331 )
G00 X0.000 Y-235.000 Z0.000
G04 P.11
S18000
G04 P.44
S17000
G04 P.6
( CAPTURE NUMBER: 332 )
G00 X0.000 Y-240.000 Z0.000
G04 P.11
S18000
G04 P.44
S17000
G04 P.6
( CAPTURE NUMBER: 333 )
G00 X0.000 Y-245.000 Z0.000
G04 P.11
S18000
G04 P.44
S17000
G04 P.6
( CAPTURE NUMBER: 334 )
G00 X0.000 Y-250.000 Z0.000
G04 P.11
S18000
G04 P.44
S17000
G04 P.6
( CAPTURE NUMBER: 335 )
G00 X0.000 Y-255.000 Z0.000
G04 P.11
S18000
G04 P.44
S17000
G04 P.6
( CAPTURE NUMBER: 336 )
G00 X0.000 Y-260.000 Z0.000
G04 P.11
S18000
G04 P.44
S17000
G04 P.6
( CAPTURE NUMBER: 337 )
G00 X0.000 Y-265.000 Z0.000
G04 P.11
S18000
G04 P.44
S17000
G04 P.6
( CAPTURE NUMBER: 338 )
G00 X0.000 Y-270.000 Z0.000
G04 P.11
S18000
G04 P.44
S17000
G04 P.6
( CAPTURE NUMBER: 339 )
G00 X0.000 Y-275.000 Z0.000
G04 P.11
S18000
G04 P.44
S17000
G04 P.6
( CAPTURE NUMBER: 340 )
G00 X0.000 Y-280.000 Z0.000
G04 P.11
S18000
G04 P.44
S17000
G04 P.6
( CAPTURE NUMBER: 341 )
G00 X0.000 Y-285.000 Z0.000
G04 P.11
S18000
G04 P.44
S17000
G04 P.6
( CAPTURE NUMBER: 342 )
G00 X0.000 Y-290.000 Z0.000
G04 P.11
S18000
G04 P.44
S17000
G04 P.6
( CAPTURE NUMBER: 343 )
G00 X0.000 Y-295.000 Z0.000
G04 P.11
S18000
G04 P.44
S17000
G04 P.6
( CAPTURE NUMBER: 344 )
G00 X0.000 Y-300.000 Z0.000
G04 P.11
S18000
G04 P.44
S17000
G04 P.6
( CAPTURE NUMBER: 345 )
G00 X0.000 Y-305.000 Z0.000
G04 P.11
S18000
G04 P.44
S17000
G04 P.6
( CAPTURE NUMBER: 346 )
G00 X0.000 Y-310.000 Z0.000
G04 P.11
S18000
G04 P.44
S17000
G04 P.6
( CAPTURE NUMBER: 347 )
G00 X0.000 Y-315.000 Z0.000
G04 P.11
S18000
G04 P.44
S17000
G04 P.6
( CAPTURE NUMBER: 348 )
G00 X0.000 Y-320.000 Z0.000
G04 P.11
S18000
G04 P.44
S17000
G04 P.6
( CAPTURE NUMBER: 349 )
G00 X0.000 Y-325.000 Z0.000
G04 P.11
S18000
G04 P.44
S17000
G04 P.6
( CAPTURE NUMBER: 350 )
G00 X0.000 Y-330.000 Z0.000
G04 P.11
S18000
G04 P.44
S17000
G04 P.6
( CAPTURE NUMBER: 351 )
G00 X0.000 Y-335.000 Z0.000
G04 P.11
S18000
G04 P.44
S17000
G04 P.6
( CAPTURE NUMBER: 352 )
G00 X0.000 Y-340.000 Z0.000
G04 P.11
S18000
G04 P.44
S17000
G04 P.6
( CAPTURE NUMBER: 353 )
G00 X0.000 Y-345.000 Z0.000
G04 P.11
S18000
G04 P.44
S17000
G04 P.6
( CAPTURE NUMBER: 354 )
G00 X0.000 Y-350.000 Z0.000
G04 P.11
S18000
G04 P.44
S17000
G04 P.6
( HALT TO STANDARDIZE TIME INTERVALS )
G04 P.412
( CAPTURE NUMBER: 355 )
G00 X0.000 Y-350.000 Z0.000
G04 P.11
S18000
G04 P.44
S17000
G04 P.6
( CAPTURE NUMBER: 356 )
G00 X0.000 Y-345.000 Z0.000
G04 P.11
S18000
G04 P.44
S17000
G04 P.6
( CAPTURE NUMBER: 357 )
G00 X0.000 Y-340.000 Z0.000
G04 P.11
S18000
G04 P.44
S17000
G04 P.6
( CAPTURE NUMBER: 358 )
G00 X0.000 Y-335.000 Z0.000
G04 P.11
S18000
G04 P.44
S17000
G04 P.6
( CAPTURE NUMBER: 359 )
G00 X0.000 Y-330.000 Z0.000
G04 P.11
S18000
G04 P.44
S17000
G04 P.6
( CAPTURE NUMBER: 360 )
G00 X0.000 Y-325.000 Z0.000
G04 P.11
S18000
G04 P.44
S17000
G04 P.6
( CAPTURE NUMBER: 361 )
G00 X0.000 Y-320.000 Z0.000
G04 P.11
S18000
G04 P.44
S17000
G04 P.6
( CAPTURE NUMBER: 362 )
G00 X0.000 Y-315.000 Z0.000
G04 P.11
S18000
G04 P.44
S17000
G04 P.6
( CAPTURE NUMBER: 363 )
G00 X0.000 Y-310.000 Z0.000
G04 P.11
S18000
G04 P.44
S17000
G04 P.6
( CAPTURE NUMBER: 364 )
G00 X0.000 Y-305.000 Z0.000
G04 P.11
S18000
G04 P.44
S17000
G04 P.6
( CAPTURE NUMBER: 365 )
G00 X0.000 Y-300.000 Z0.000
G04 P.11
S18000
G04 P.44
S17000
G04 P.6
( CAPTURE NUMBER: 366 )
G00 X0.000 Y-295.000 Z0.000
G04 P.11
S18000
G04 P.44
S17000
G04 P.6
( CAPTURE NUMBER: 367 )
G00 X0.000 Y-290.000 Z0.000
G04 P.11
S18000
G04 P.44
S17000
G04 P.6
( CAPTURE NUMBER: 368 )
G00 X0.000 Y-285.000 Z0.000
G04 P.11
S18000
G04 P.44
S17000
G04 P.6
( CAPTURE NUMBER: 369 )
G00 X0.000 Y-280.000 Z0.000
G04 P.11
S18000
G04 P.44
S17000
G04 P.6
( CAPTURE NUMBER: 370 )
G00 X0.000 Y-275.000 Z0.000
G04 P.11
S18000
G04 P.44
S17000
G04 P.6
( CAPTURE NUMBER: 371 )
G00 X0.000 Y-270.000 Z0.000
G04 P.11
S18000
G04 P.44
S17000
G04 P.6
( CAPTURE NUMBER: 372 )
G00 X0.000 Y-265.000 Z0.000
G04 P.11
S18000
G04 P.44
S17000
G04 P.6
( CAPTURE NUMBER: 373 )
G00 X0.000 Y-260.000 Z0.000
G04 P.11
S18000
G04 P.44
S17000
G04 P.6
( CAPTURE NUMBER: 374 )
G00 X0.000 Y-255.000 Z0.000
G04 P.11
S18000
G04 P.44
S17000
G04 P.6
( CAPTURE NUMBER: 375 )
G00 X0.000 Y-250.000 Z0.000
G04 P.11
S18000
G04 P.44
S17000
G04 P.6
( CAPTURE NUMBER: 376 )
G00 X0.000 Y-245.000 Z0.000
G04 P.11
S18000
G04 P.44
S17000
G04 P.6
( CAPTURE NUMBER: 377 )
G00 X0.000 Y-240.000 Z0.000
G04 P.11
S18000
G04 P.44
S17000
G04 P.6
( CAPTURE NUMBER: 378 )
G00 X0.000 Y-235.000 Z0.000
G04 P.11
S18000
G04 P.44
S17000
G04 P.6
( CAPTURE NUMBER: 379 )
G00 X0.000 Y-230.000 Z0.000
G04 P.11
S18000
G04 P.44
S17000
G04 P.6
( CAPTURE NUMBER: 380 )
G00 X0.000 Y-225.000 Z0.000
G04 P.11
S18000
G04 P.44
S17000
G04 P.6
( CAPTURE NUMBER: 381 )
G00 X0.000 Y-220.000 Z0.000
G04 P.11
S18000
G04 P.44
S17000
G04 P.6
( CAPTURE NUMBER: 382 )
G00 X0.000 Y-215.000 Z0.000
G04 P.11
S18000
G04 P.44
S17000
G04 P.6
( CAPTURE NUMBER: 383 )
G00 X0.000 Y-210.000 Z0.000
G04 P.11
S18000
G04 P.44
S17000
G04 P.6
( CAPTURE NUMBER: 384 )
G00 X0.000 Y-205.000 Z0.000
G04 P.11
S18000
G04 P.44
S17000
G04 P.6
( CAPTURE NUMBER: 385 )
G00 X0.000 Y-200.000 Z0.000
G04 P.11
S18000
G04 P.44
S17000
G04 P.6
( CAPTURE NUMBER: 386 )
G00 X0.000 Y-195.000 Z0.000
G04 P.11
S18000
G04 P.44
S17000
G04 P.6
( CAPTURE NUMBER: 387 )
G00 X0.000 Y-190.000 Z0.000
G04 P.11
S18000
G04 P.44
S17000
G04 P.6
( CAPTURE NUMBER: 388 )
G00 X0.000 Y-185.000 Z0.000
G04 P.11
S18000
G04 P.44
S17000
G04 P.6
( CAPTURE NUMBER: 389 )
G00 X0.000 Y-180.000 Z0.000
G04 P.11
S18000
G04 P.44
S17000
G04 P.6
( CAPTURE NUMBER: 390 )
G00 X0.000 Y-175.000 Z0.000
G04 P.11
S18000
G04 P.44
S17000
G04 P.6
( CAPTURE NUMBER: 391 )
G00 X0.000 Y-170.000 Z0.000
G04 P.11
S18000
G04 P.44
S17000
G04 P.6
( CAPTURE NUMBER: 392 )
G00 X0.000 Y-165.000 Z0.000
G04 P.11
S18000
G04 P.44
S17000
G04 P.6
( CAPTURE NUMBER: 393 )
G00 X0.000 Y-160.000 Z0.000
G04 P.11
S18000
G04 P.44
S17000
G04 P.6
( CAPTURE NUMBER: 394 )
G00 X0.000 Y-155.000 Z0.000
G04 P.11
S18000
G04 P.44
S17000
G04 P.6
( CAPTURE NUMBER: 395 )
G00 X0.000 Y-150.000 Z0.000
G04 P.11
S18000
G04 P.44
S17000
G04 P.6
( CAPTURE NUMBER: 396 )
G00 X0.000 Y-145.000 Z0.000
G04 P.11
S18000
G04 P.44
S17000
G04 P.6
( CAPTURE NUMBER: 397 )
G00 X0.000 Y-140.000 Z0.000
G04 P.11
S18000
G04 P.44
S17000
G04 P.6
( CAPTURE NUMBER: 398 )
G00 X0.000 Y-135.000 Z0.000
G04 P.11
S18000
G04 P.44
S17000
G04 P.6
( CAPTURE NUMBER: 399 )
G00 X0.000 Y-130.000 Z0.000
G04 P.11
S18000
G04 P.44
S17000
G04 P.6
( CAPTURE NUMBER: 400 )
G00 X0.000 Y-125.000 Z0.000
G04 P.11
S18000
G04 P.44
S17000
G04 P.6
( CAPTURE NUMBER: 401 )
G00 X0.000 Y-120.000 Z0.000
G04 P.11
S18000
G04 P.44
S17000
G04 P.6
( CAPTURE NUMBER: 402 )
G00 X0.000 Y-115.000 Z0.000
G04 P.11
S18000
G04 P.44
S17000
G04 P.6
( CAPTURE NUMBER: 403 )
G00 X0.000 Y-110.000 Z0.000
G04 P.11
S18000
G04 P.44
S17000
G04 P.6
( CAPTURE NUMBER: 404 )
G00 X0.000 Y-105.000 Z0.000
G04 P.11
S18000
G04 P.44
S17000
G04 P.6
( CAPTURE NUMBER: 405 )
G00 X0.000 Y-100.000 Z0.000
G04 P.11
S18000
G04 P.44
S17000
G04 P.6
( CAPTURE NUMBER: 406 )
G00 X0.000 Y-95.000 Z0.000
G04 P.11
S18000
G04 P.44
S17000
G04 P.6
( CAPTURE NUMBER: 407 )
G00 X0.000 Y-90.000 Z0.000
G04 P.11
S18000
G04 P.44
S17000
G04 P.6
( CAPTURE NUMBER: 408 )
G00 X0.000 Y-85.000 Z0.000
G04 P.11
S18000
G04 P.44
S17000
G04 P.6
( CAPTURE NUMBER: 409 )
G00 X0.000 Y-80.000 Z0.000
G04 P.11
S18000
G04 P.44
S17000
G04 P.6
( CAPTURE NUMBER: 410 )
G00 X0.000 Y-75.000 Z0.000
G04 P.11
S18000
G04 P.44
S17000
G04 P.6
( CAPTURE NUMBER: 411 )
G00 X0.000 Y-70.000 Z0.000
G04 P.11
S18000
G04 P.44
S17000
G04 P.6
( CAPTURE NUMBER: 412 )
G00 X0.000 Y-65.000 Z0.000
G04 P.11
S18000
G04 P.44
S17000
G04 P.6
( CAPTURE NUMBER: 413 )
G00 X0.000 Y-60.000 Z0.000
G04 P.11
S18000
G04 P.44
S17000
G04 P.6
( CAPTURE NUMBER: 414 )
G00 X0.000 Y-55.000 Z0.000
G04 P.11
S18000
G04 P.44
S17000
G04 P.6
( CAPTURE NUMBER: 415 )
G00 X0.000 Y-50.000 Z0.000
G04 P.11
S18000
G04 P.44
S17000
G04 P.6
( CAPTURE NUMBER: 416 )
G00 X0.000 Y-45.000 Z0.000
G04 P.11
S18000
G04 P.44
S17000
G04 P.6
( CAPTURE NUMBER: 417 )
G00 X0.000 Y-40.000 Z0.000
G04 P.11
S18000
G04 P.44
S17000
G04 P.6
( CAPTURE NUMBER: 418 )
G00 X0.000 Y-35.000 Z0.000
G04 P.11
S18000
G04 P.44
S17000
G04 P.6
( CAPTURE NUMBER: 419 )
G00 X0.000 Y-30.000 Z0.000
G04 P.11
S18000
G04 P.44
S17000
G04 P.6
( CAPTURE NUMBER: 420 )
G00 X0.000 Y-25.000 Z0.000
G04 P.11
S18000
G04 P.44
S17000
G04 P.6
( CAPTURE NUMBER: 421 )
G00 X0.000 Y-20.000 Z0.000
G04 P.11
S18000
G04 P.44
S17000
G04 P.6
( CAPTURE NUMBER: 422 )
G00 X0.000 Y-15.000 Z0.000
G04 P.11
S18000
G04 P.44
S17000
G04 P.6
( CAPTURE NUMBER: 423 )
G00 X0.000 Y-10.000 Z0.000
G04 P.11
S18000
G04 P.44
S17000
G04 P.6
( CAPTURE NUMBER: 424 )
G00 X0.000 Y-5.000 Z0.000
G04 P.11
S18000
G04 P.44
S17000
G04 P.6
( CAPTURE NUMBER: 425 )
G00 X0.000 Y0.000 Z0.000
G04 P.11
S18000
G04 P.44
S17000
G04 P.6
( HALT TO STANDARDIZE TIME INTERVALS )
G04 P.412
( OVERFLOW: 0 )
G04 P1
G01 X0.000 Y0.000 Z5.000
G04 P1
( OVERFLOW: 1 )
G04 P1
G01 X0.000 Y0.000 Z0.000
G04 P1
( OVERFLOW: 2 )
G04 P1
G01 X0.000 Y0.000 Z5.000
G04 P1
( OVERFLOW: 3 )
G04 P1
G01 X0.000 Y0.000 Z0.000
G04 P1
( OVERFLOW: 4 )
G04 P1
G01 X0.000 Y0.000 Z5.000
G04 P1
( OVERFLOW: 5 )
G04 P1
G01 X0.000 Y0.000 Z0.000
G04 P1
( OVERFLOW: 6 )
G04 P1
G01 X0.000 Y0.000 Z5.000
G04 P1
( OVERFLOW: 7 )
G04 P1
G01 X0.000 Y0.000 Z0.000
G04 P1
( OVERFLOW: 8 )
G04 P1
G01 X0.000 Y0.000 Z5.000
G04 P1
( OVERFLOW: 9 )
G04 P1
G01 X0.000 Y0.000 Z0.000
G04 P1
( OVERFLOW: 10 )
G04 P1
G01 X0.000 Y0.000 Z5.000
G04 P1
( OVERFLOW: 11 )
G04 P1
G01 X0.000 Y0.000 Z0.000
G04 P1
( OVERFLOW: 12 )
G04 P1
G01 X0.000 Y0.000 Z5.000
G04 P1
( OVERFLOW: 13 )
G04 P1
G01 X0.000 Y0.000 Z0.000
G04 P1
( OVERFLOW: 14 )
G04 P1
G01 X0.000 Y0.000 Z5.000
G04 P1
( OVERFLOW: 15 )
G04 P1
G01 X0.000 Y0.000 Z0.000
G04 P1
( OVERFLOW: 16 )
G04 P1
G01 X0.000 Y0.000 Z5.000
G04 P1
( OVERFLOW: 17 )
G04 P1
G01 X0.000 Y0.000 Z0.000
G04 P1
( OVERFLOW: 18 )
G04 P1
G01 X0.000 Y0.000 Z5.000
G04 P1
( OVERFLOW: 19 )
G04 P1
G01 X0.000 Y0.000 Z0.000
G04 P1
( OVERFLOW: 20 )
G04 P1
G01 X0.000 Y0.000 Z5.000
G04 P1
( OVERFLOW: 21 )
G04 P1
G01 X0.000 Y0.000 Z0.000
G04 P1
( OVERFLOW: 22 )
G04 P1
G01 X0.000 Y0.000 Z5.000
G04 P1
( OVERFLOW: 23 )
G04 P1
G01 X0.000 Y0.000 Z0.000
G04 P1
( OVERFLOW: 24 )
G04 P1
G01 X0.000 Y0.000 Z5.000
G04 P1
( OVERFLOW: 25 )
G04 P1
G01 X0.000 Y0.000 Z0.000
G04 P1
( OVERFLOW: 26 )
G04 P1
G01 X0.000 Y0.000 Z5.000
G04 P1
( OVERFLOW: 27 )
G04 P1
G01 X0.000 Y0.000 Z0.000
G04 P1
( OVERFLOW: 28 )
G04 P1
G01 X0.000 Y0.000 Z5.000
G04 P1
( OVERFLOW: 29 )
G04 P1
G01 X0.000 Y0.000 Z0.000
G04 P1
( MACHINE END )
G04 P.8
G00 X0.000 Y0.000 Z5.080
G00  Z20.320
G00  X0.000  Y0.000
M02
