( ERROR CORRECTION SCRIPT )
( TIMESTAMP: 1692924735.2146473 )
( MACHINE START )
G21
G90
F150
S17000
M03
G00  X0.000  Y0.000 Z0.000
G04 P1
( CAPTURE NUMBER: 420 )
G00 X.000 Y-30.000 Z0.000
G04 P0.8
G00 X0.000 Y-25.000 Z0.000
G04 P.3
S18000
G04 P.25
S17000
G04 P.6
( CAPTURE NUMBER: 421 )
G00 X.000 Y-25.000 Z0.000
G04 P0.8
G00 X0.000 Y-20.000 Z0.000
G04 P.3
S18000
G04 P.25
S17000
G04 P.6
( MOVE TO ENDPOINT START )
G00 X.000 Y0.000 Z0.000
G04 P0.8
( OVERFLOW: 0 )
G04 P1
G01 X0.000 Y0.000 Z5.000
G04 P1
( OVERFLOW: 1 )
G04 P1
G01 X0.000 Y0.000 Z0.000
G04 P1
( OVERFLOW: 2 )
G04 P1
G01 X0.000 Y0.000 Z5.000
G04 P1
( OVERFLOW: 3 )
G04 P1
G01 X0.000 Y0.000 Z0.000
G04 P1
( OVERFLOW: 4 )
G04 P1
G01 X0.000 Y0.000 Z5.000
G04 P1
( OVERFLOW: 5 )
G04 P1
G01 X0.000 Y0.000 Z0.000
G04 P1
( OVERFLOW: 6 )
G04 P1
G01 X0.000 Y0.000 Z5.000
G04 P1
( OVERFLOW: 7 )
G04 P1
G01 X0.000 Y0.000 Z0.000
G04 P1
( OVERFLOW: 8 )
G04 P1
G01 X0.000 Y0.000 Z5.000
G04 P1
( OVERFLOW: 9 )
G04 P1
G01 X0.000 Y0.000 Z0.000
G04 P1
( OVERFLOW: 10 )
G04 P1
G01 X0.000 Y0.000 Z5.000
G04 P1
( OVERFLOW: 11 )
G04 P1
G01 X0.000 Y0.000 Z0.000
G04 P1
( OVERFLOW: 12 )
G04 P1
G01 X0.000 Y0.000 Z5.000
G04 P1
( OVERFLOW: 13 )
G04 P1
G01 X0.000 Y0.000 Z0.000
G04 P1
( OVERFLOW: 14 )
G04 P1
G01 X0.000 Y0.000 Z5.000
G04 P1
( OVERFLOW: 15 )
G04 P1
G01 X0.000 Y0.000 Z0.000
G04 P1
( OVERFLOW: 16 )
G04 P1
G01 X0.000 Y0.000 Z5.000
G04 P1
( OVERFLOW: 17 )
G04 P1
G01 X0.000 Y0.000 Z0.000
G04 P1
( MACHINE END )
G04 P0.8
G00 X0.000 Y0.000 Z5.080
G00  Z20.320
G00  X0.000  Y0.000
M02
